X:160
T: Gneevgullia
S: "Johnny O'Leary of Sliabh Luachra" (#64)
Z: B.Black
L: 1/8
M: 2/4
Q: 290
R: polka
K: D
f/g/f/e/ d/e/f/a/|ba af|eA ce|gf f2|
f/g/f/e/ d/e/f/a/|b2 a>f|eA ce|1 ed d2 :|2\
ed d|
f|ad fe/d/|cB BA/B/|ef gB|ba fd/f/|
ad fe/d/|cB BA/B/|ef gc|1 ed d :|2 ed d2 ||
